selection-remove.svg

<svg fill="currentColor" viewBox="0 0 24 24"><path d="M20 20v-3h2v3a2 2 0 0 1-2 2h-3v-2zM2 20v-3h2v3h3v2H4c-1.1 0-2-.9-2-2m8 0h4v2h-4zm4.59-12L12 10.59 9.41 8 8 9.41 10.59 12 8 14.59 9.41 16 12 13.41 14.59 16 16 14.59 13.41 12 16 9.41zM20 10h2v4h-2zM2 10h2v4H2zm0-6a2 2 0 0 1 2-2h3v2H4v3H2zm20 0v3h-2V4h-3V2h3c1.1 0 2 .9 2 2M10 2h4v2h-4z"/></svg>

<svg  viewBox="0 0 24 24" fill="currentColor"><path  d="M20 20V17H22V20C22 21.11 21.1 22 20 22H17V20H20M2 20V17H4V20H7V22H4C2.9 22 2 21.1 2 20M10 20H14V22H10V20M14.59 8L12 10.59L9.41 8L8 9.41L10.59 12L8 14.59L9.41 16L12 13.41L14.59 16L16 14.59L13.41 12L16 9.41L14.59 8M20 10H22V14H20V10M2 10H4V14H2V10M2 4C2 2.89 2.9 2 4 2H7V4H4V7H2V4M22 4V7H20V4H17V2H20C21.1 2 22 2.9 22 4M10 2H14V4H10V2Z"/></svg>
